X:1
T:Samoa, LMD
T:Andrew J. Mann, 1917
T:Samoa, LMD
T:Public Domain
T:Public Domain
C:Andrew J. Mann, 1917
Z:Public Domain
%%score ( 1 2 ) ( 3 4 )
L:1/8
M:9/8
K:F
V:1 treble 
V:2 treble 
V:3 bass 
V:4 bass 
V:1
 C [CF]2 [CG] | [FA]3- [FA]2 [FA] (Bc)[Fd] | [Fc]3- [Fc]2 [FA] ([Ac][GB])[FA] | %3
 [GB]3- [GB]2 [EG] ([GB][^FA])[GB] | [FA]3- [FA]2 C [CF]2 [CG] | [FA]3- [FA]2 [FA] (Bc)[Fd] | %6
 [Fc]3- [Fc]2 [Fc] (=BA)[FG] | [F=B]3- [FB]2 [EG] ([DF][CE])[=B,D] | C3- C2 c c2 c | %9
 [CE]3 [CE]3 E2 c c2 c | [CF]3 [DF]3 [CF]3 F3 | [Fd]3 [Fc]3 [EB]3 [FA]3 | %12
 [CG]3 [FG]3 [EG]2 c c2 c | [CE]3 [CE]3 E2 c (c2 c) | [CF]3 [DF]3 [CF]3 F3 | %15
 [FB]3 [Fd]3 [Fc]3 [FG]3 | [FA]3- [FA]2 [EG] [CF]2 |] %17
V:2
 C x3 | x6 F2 x | x9 | x9 | x5 C x3 | x6 F2 x | x6 F2 x | x9 | C3- C2 x4 | x6 C3 E3 | x9 F3 | x12 | %12
 x12 | x6 C3 E3 | x9 F3 | x12 | x8 |] %17
V:3
 [F,A,] [F,A,]2 [F,B,] | [F,C]3- [F,C]2 [F,C] (G,A,)[F,B,] | [F,A,]3- [F,A,]2 [F,C] [C,C]2 [C,D] | %3
 [C,C]3- [C,C]2 [C,C] [C,C]2 [C,C] | [F,C]3- [F,C]2 [F,A,] [F,A,]2 [F,B,] | %5
 [F,C]3- [F,C]2 [F,C] (DA,)[F,B,] | [F,A,]3- [F,A,]2 [F,A,] (G,A,)[G,=B,] | %7
 [G,D]3- [G,D]2 [G,=B,] (A,G,)[G,,F,] | [C,E,]3- [C,E,]2 z4 | [G,B,]3 [B,,B,]3 [G,B,]3 [C,B,]3 | %10
 [F,A,]3 [F,B,]3 [F,A,]3 [A,C]3 | B,3 [A,C]3 [G,C]3 [F,C]3 | [E,C]3 [D,=B,]3 [C,C]2 z4 | %13
 [G,B,]3 [C,B,]3 [G,B,]3 [C,B,]3 | [F,A,]3 [F,B,]3 [F,A,]3 [_E,A,]3 | %15
 [D,A,]3 [B,,B,]3 [D,A,]3 [D,A,]3 | [C,C]3- [C,C]2 [C,B,] [F,A,]2 |] %17
V:4
 x4 | x6 F,2 x | x9 | x9 | x9 | x6 F,2 x | x6 G,2 x | x6 G,,2 x | x9 | x12 | x12 | B,3 x9 | x12 | %13
 x12 | x12 | x12 | x8 |] %17

